src/assets/logos/vscode.svg

<svg version="1.2" xmlns="http://www.w3.org/2000/svg" viewBox="0 0 100 100"><defs><clipPath clipPathUnits="userSpaceOnUse" id="cp1"><path d="m68.77 97.92l-39.41-35.96-17.17 13.03c-1.6 1.21-3.84 1.11-5.32-0.24l-5.51-5c-1.81-1.66-1.81-4.51 0-6.17l14.89-13.58-14.89-13.58c-1.81-1.66-1.81-4.51 0-6.17l5.51-5c1.48-1.35 3.72-1.45 5.32-0.24l17.17 13.03 39.41-35.96q0.35-0.35 0.74-0.63c1.83-1.33 4.28-1.58 6.36-0.58l20.59 9.91c2.16 1.04 3.54 3.23 3.54 5.63v67.18c0 2.4-1.38 4.59-3.54 5.63l-20.59 9.91c-1.59 0.76-3.38 0.8-4.96 0.19q-1.19-0.47-2.14-1.4zm6.25-70.62l-29.91 22.7 29.91 22.7z"/></clipPath><linearGradient id="P" gradientUnits="userSpaceOnUse"/><linearGradient id="g1" x2="1" href="#P" gradientTransform="matrix(0,99.484,-99.999,0,49.939,.258)"><stop stop-color="#fff" stop-opacity="1"/><stop offset="1" stop-color="#fff" stop-opacity="0"/></linearGradient></defs><style>.a{fill:#0065a9}.b{fill:#007acc}.c{fill:#1f9cf0}.d{mix-blend-mode:overlay;fill:url(#g1)}</style><g clip-path="url(#cp1)"><path class="a" d="m96.5 10.8l-20.6-9.9c-2.4-1.2-5.3-0.7-7.1 1.2l-67.5 61.5c-1.8 1.6-1.8 4.5 0 6.1l5.5 5.1c1.5 1.3 3.7 1.4 5.3 0.2l81.3-61.6c2.7-2.1 6.6-0.2 6.6 3.3v-0.3c0-2.4-1.4-4.6-3.5-5.6z"/><path class="b" d="m96.5 89.2l-20.6 9.9c-2.4 1.2-5.3 0.7-7.1-1.2l-67.5-61.5c-1.8-1.6-1.8-4.5 0-6.1l5.5-5.1c1.5-1.3 3.7-1.4 5.3-0.2l81.3 61.6c2.7 2.1 6.6 0.2 6.6-3.3v0.3c0 2.4-1.4 4.6-3.5 5.6z"/><path class="c" d="m75.9 99.1c-2.4 1.2-5.3 0.7-7.2-1.2 2.4 2.3 6.3 0.7 6.3-2.6v-90.6c0-3.3-3.9-4.9-6.3-2.6 1.9-1.9 4.8-2.4 7.2-1.2l20.6 9.9c2.1 1 3.5 3.2 3.5 5.6v67.2c0 2.4-1.4 4.6-3.5 5.6z"/><g style="opacity:.3"><path fill-rule="evenodd" class="d" d="m68.7 97.9l-39.4-35.9-17.2 13c-1.6 1.2-3.8 1.1-5.3-0.2l-5.5-5.1c-1.8-1.6-1.8-4.5 0-6.1l14.9-13.6-14.9-13.6c-1.8-1.6-1.8-4.5 0-6.1l5.5-5.1c1.5-1.3 3.7-1.4 5.3-0.2l17.2 13 39.4-35.9q0.4-0.4 0.8-0.7c1.8-1.3 4.2-1.5 6.3-0.5l20.6 9.9c2.2 1 3.5 3.2 3.5 5.6v67.2c0 2.4-1.3 4.6-3.5 5.6l-20.6 9.9c-1.6 0.8-3.4 0.8-4.9 0.2q-1.2-0.4-2.2-1.4zm6.3-70.6l-30 22.7 30 22.7z"/></g></g></svg>

<svg xmlns="http://www.w3.org/2000/svg" version="1.2" viewBox="0 0 100 100">
  <defs>
    <linearGradient id="a" gradientUnits="userSpaceOnUse"/>
    <linearGradient id="c" x2="1" gradientTransform="matrix(0 99.484 -99.999 0 49.939 .258)" href="#a">
      <stop stop-color="#fff"/>
      <stop offset="1" stop-color="#fff" stop-opacity="0"/>
    </linearGradient>
    <clipPath id="b" clipPathUnits="userSpaceOnUse">
      <path d="M68.77 97.92 29.36 61.96 12.19 74.99a4.17 4.17 0 0 1-5.32-.24l-5.51-5a4.184 4.184 0 0 1 0-6.17L16.25 50 1.36 36.42a4.184 4.184 0 0 1 0-6.17l5.51-5a4.17 4.17 0 0 1 5.32-.24l17.17 13.03L68.77 2.08q.35-.35.74-.63a6.242 6.242 0 0 1 6.36-.58l20.59 9.91a6.254 6.254 0 0 1 3.54 5.63v67.18c0 2.4-1.38 4.59-3.54 5.63l-20.59 9.91c-1.59.76-3.38.8-4.96.19q-1.19-.47-2.14-1.4zm6.25-70.62L45.11 50l29.91 22.7z"/>
    </clipPath>
  </defs>
  <g clip-path="url(#b)">
    <path d="M96.5 10.8 75.9.9c-2.4-1.2-5.3-.7-7.1 1.2L1.3 63.6c-1.8 1.6-1.8 4.5 0 6.1l5.5 5.1c1.5 1.3 3.7 1.4 5.3.2l81.3-61.6c2.7-2.1 6.6-.2 6.6 3.3v-.3c0-2.4-1.4-4.6-3.5-5.6z" style="fill:#0065a9"/>
    <path d="m96.5 89.2-20.6 9.9c-2.4 1.2-5.3.7-7.1-1.2L1.3 36.4c-1.8-1.6-1.8-4.5 0-6.1l5.5-5.1c1.5-1.3 3.7-1.4 5.3-.2l81.3 61.6c2.7 2.1 6.6.2 6.6-3.3v.3c0 2.4-1.4 4.6-3.5 5.6z" style="fill:#007acc"/>
    <path d="M75.9 99.1c-2.4 1.2-5.3.7-7.2-1.2 2.4 2.3 6.3.7 6.3-2.6V4.7c0-3.3-3.9-4.9-6.3-2.6C70.6.2 73.5-.3 75.9.9l20.6 9.9c2.1 1 3.5 3.2 3.5 5.6v67.2c0 2.4-1.4 4.6-3.5 5.6z" style="fill:#1f9cf0"/>
    <g style="opacity:.3">
      <path fill-rule="evenodd" d="M68.7 97.9 29.3 62 12.1 75c-1.6 1.2-3.8 1.1-5.3-.2l-5.5-5.1c-1.8-1.6-1.8-4.5 0-6.1L16.2 50 1.3 36.4c-1.8-1.6-1.8-4.5 0-6.1l5.5-5.1c1.5-1.3 3.7-1.4 5.3-.2l17.2 13L68.7 2.1q.4-.4.8-.7C71.3.1 73.7-.1 75.8.9l20.6 9.9c2.2 1 3.5 3.2 3.5 5.6v67.2c0 2.4-1.3 4.6-3.5 5.6l-20.6 9.9c-1.6.8-3.4.8-4.9.2q-1.2-.4-2.2-1.4zM75 27.3 45 50l30 22.7z" style="mix-blend-mode:overlay;fill:url(#c)"/>
    </g>
  </g>
</svg>
